ion/enter.svg

<svg viewBox="0 0 512 512" xmlns="http://www.w3.org/2000/svg"><g><path d="M160 136v104h153.37l-52.68-52.69v0c-6.09-6.41-5.83-16.54.57-22.62 6.17-5.87 15.86-5.87 22.04 0l80 80v0c6.24 6.24 6.24 16.37 0 22.62l-80 80v0c-6.41 6.08-16.54 5.82-22.62-.58 -5.87-6.18-5.87-15.87 0-22.05l52.68-52.69H159.99v104 0c.03 30.91 25.08 55.96 56 56h208v0c30.91-.04 55.96-25.09 56-56v-240 0c-.04-30.92-25.09-55.97-56-56h-208v0c-30.92.03-55.97 25.08-56 56Z"/><path d="M48 240v0c-8.84 0-16 7.16-16 16 0 8.83 7.16 16 16 16h112v-32Z"/></g></svg>

<svg xmlns="http://www.w3.org/2000/svg" width="512" height="512" viewBox="0 0 512 512"><path d="M160,136V240H313.37l-52.68-52.69a16,16,0,0,1,22.62-22.62l80,80a16,16,0,0,1,0,22.62l-80,80a16,16,0,0,1-22.62-22.62L313.37,272H160V376a56.06,56.06,0,0,0,56,56H424a56.06,56.06,0,0,0,56-56V136a56.06,56.06,0,0,0-56-56H216A56.06,56.06,0,0,0,160,136Z"/><path d="M48,240a16,16,0,0,0,0,32H160V240Z"/></svg>
